public/assets/img/icon-verified.svg

<svg width="24" height="24" viewBox="0 0 24 24" fill="none" xmlns="http://www.w3.org/2000/svg">
<path d="M12.3 2.90001C12.4 3.00001 12.5 3.00001 12.6 3.10001C13.3 3.70001 13.9 4.20001 14.6 4.80001C14.9 5.00001 15.2 5.20001 15.5 5.20001C16.4 5.30001 17.2 5.40001 18.1 5.40001C18.6 5.40001 18.7 5.50001 18.8 6.10001C18.9 7.00001 18.9 7.90001 19 8.70001C19 9.10001 19.2 9.40001 19.4 9.70001C20 10.4 20.5 11 21.1 11.7C21.4 12.1 21.4 12.2 21.1 12.5C20.6 13.1 20 13.8 19.5 14.4C19.2 14.7 19 15.1 19 15.6C18.9 16.4 18.8 17.3 18.8 18.1C18.8 18.5 18.6 18.6 18.2 18.7C17.4 18.7 16.6 18.8 15.7 18.9C15.2 18.9 14.7 19.1 14.3 19.4C13.7 19.9 13 20.5 12.4 21C12.1 21.3 11.9 21.3 11.6 21C10.9 20.4 10.2 19.8 9.59998 19.2C9.29998 19 8.99998 18.8 8.69998 18.8C7.79998 18.7 6.89998 18.6 5.99998 18.6C5.59998 18.6 5.49998 18.4 5.39998 18.1C5.39998 17.2 5.29998 16.4 5.19998 15.5C5.19998 15.1 4.99998 14.7 4.79998 14.4C4.19998 13.8 3.69998 13.1 3.19998 12.4C2.79998 12 2.89998 11.9 3.19998 11.4C3.79998 10.8 4.29998 10.1 4.89998 9.50001C5.19998 9.20001 5.29998 8.90001 5.29998 8.50001C5.29998 7.70001 5.39998 6.90001 5.49998 6.00001C5.49998 5.50001 5.59998 5.40001 6.09998 5.40001C6.99998 5.30001 7.79998 5.30001 8.69998 5.20001C9.09998 5.20001 9.39998 5.00001 9.69998 4.80001C10.4 4.20001 11.1 3.60001 11.8 3.10001C11.9 2.90001 12.1 2.80001 12.3 2.90001Z" fill="#F667A3"/>
<path d="M16.4 10.1L16.2 10.3L10.8 15.7C10.7 15.8 10.6 15.9 10.4 15.7L7.80004 13.1C7.60004 12.9 7.70004 12.8 7.80004 12.7C8.00004 12.5 8.30004 12.1 8.50004 12.1C8.80004 12.1 9.00004 12.5 9.20004 12.7L10.3 13.8C10.5 14 10.6 14 10.8 13.8L15.1 9.50001C15.3 9.30001 15.5 9.20001 15.7 9.50001C15.8 9.70001 16 9.80001 16.1 10C16.3 10 16.4 10.1 16.4 10.1Z" fill="#F8FCFC"/>
</svg>

<svg xmlns="http://www.w3.org/2000/svg" viewBox="0 0 24 24"><path d="M12.3 2.9c.1.1.2.1.3.2.7.6 1.3 1.1 2 1.7.3.2.6.4.9.4.9.1 1.7.2 2.6.2.5 0 .6.1.7.7.1.9.1 1.8.2 2.6 0 .4.2.7.4 1 .6.7 1.1 1.3 1.7 2 .3.4.3.5 0 .8-.5.6-1.1 1.3-1.6 1.9-.3.3-.5.7-.5 1.2-.1.8-.2 1.7-.2 2.5 0 .4-.2.5-.6.6-.8 0-1.6.1-2.5.2-.5 0-1 .2-1.4.5-.6.5-1.3 1.1-1.9 1.6-.3.3-.5.3-.8 0-.7-.6-1.4-1.2-2-1.8-.3-.2-.6-.4-.9-.4-.9-.1-1.8-.2-2.7-.2-.4 0-.5-.2-.6-.5 0-.9-.1-1.7-.2-2.6 0-.4-.2-.8-.4-1.1-.6-.6-1.1-1.3-1.6-2-.4-.4-.3-.5 0-1 .6-.6 1.1-1.3 1.7-1.9.3-.3.4-.6.4-1 0-.8.1-1.6.2-2.5 0-.5.1-.6.6-.6.9-.1 1.7-.1 2.6-.2.4 0 .7-.2 1-.4.7-.6 1.4-1.2 2.1-1.7.1-.2.3-.3.5-.2z" fill="#33a8e5"/><path d="M16.4 10.1l-.2.2-5.4 5.4c-.1.1-.2.2-.4 0l-2.6-2.6c-.2-.2-.1-.3 0-.4.2-.2.5-.6.7-.6.3 0 .5.4.7.6l1.1 1.1c.2.2.3.2.5 0l4.3-4.3c.2-.2.4-.3.6 0 .1.2.3.3.4.5.2 0 .3.1.3.1z" fill="#f8fcfc"/></svg>
